Increase/img/customers/01.svg

<svg width="117" height="29" viewBox="0 0 117 29" fill="none" xmlns="http://www.w3.org/2000/svg">
<path fill-rule="evenodd" clip-rule="evenodd" d="M14.9321 23.2004C14.7617 23.2004 14.677 23.2835 14.677 23.2835C14.677 23.2835 12.5431 24.9461 8.7024 24.9461C4.86351 24.9452 2.73231 23.2826 2.73231 23.2826C2.73231 23.2826 2.56199 23.2004 2.47729 23.2004C2.30607 23.2004 2.13484 23.2835 2.13484 23.532V23.6142C2.47638 25.3547 2.73231 26.5972 2.73231 26.7626C2.98732 28.006 5.5484 29 8.61952 29C11.6915 29 14.2517 28.006 14.5076 26.7626C14.5076 26.5972 14.7627 25.3547 15.0996 23.6142V23.532C15.1816 23.3657 15.0996 23.2004 14.9266 23.2004H14.9321ZM32.2531 19.1411C33.3624 18.561 33.7895 17.7323 33.7895 16.488V14.7485C33.7895 12.2634 32.2531 11.0218 29.0107 11.0218H22.5261C22.271 11.0218 22.0998 11.1881 22.0998 11.4375V27.6743C22.0998 27.9237 22.2701 28.09 22.5261 28.09H29.5226C32.5946 28.09 34.3861 26.5981 34.3861 24.0308V22.2886C34.3861 20.7984 33.6183 19.639 32.2531 19.1402V19.1411ZM38.909 15.4949H36.2677C36.0127 15.4949 35.8397 15.6612 35.8397 15.9106V27.6743C35.8397 27.922 36.0127 28.09 36.2677 28.09H38.9181C39.1731 28.09 39.3461 27.922 39.3461 27.6743V15.9097C39.3461 15.6621 39.1731 15.494 38.9181 15.494L38.909 15.4949ZM102.481 15.2473C98.9013 15.2473 97.1071 16.9868 97.1071 20.2174V23.4489C97.1071 26.7634 98.9013 28.3376 102.654 28.3376C104.193 28.3376 105.814 28.09 107.18 27.5912C107.351 27.509 107.521 27.3436 107.435 27.0942L107.009 25.2724C107.009 25.1884 106.924 25.023 106.839 25.023C106.753 24.9399 106.584 24.9399 106.497 24.9399C105.304 25.2715 104.109 25.4378 103 25.4378C101.037 25.4378 100.696 24.8576 100.696 23.532V23.1163H107.266C107.521 23.1163 107.694 22.9518 107.694 22.7033V20.3837C107.608 16.9037 105.987 15.2455 102.489 15.2455L102.481 15.2473ZM55.6398 25.3555C54.9567 25.3555 54.4467 25.3555 53.9367 25.2715V18.8864C54.7053 18.5504 55.729 18.2232 56.4959 18.2232C57.5205 18.2232 57.9477 18.6388 57.9477 19.5497V23.2729C57.9477 24.6817 57.6061 25.3449 55.6434 25.3449L55.6398 25.3555ZM116.306 25.6032C116.306 25.52 116.224 25.3555 116.139 25.2715C116.054 25.1831 115.884 25.1831 115.798 25.1831C115.286 25.2627 114.86 25.3511 114.518 25.3511C113.835 25.3511 113.58 25.1035 113.58 24.4402V18.2232H116.139C116.394 18.2232 116.564 18.0551 116.564 17.8075V15.9061C116.564 15.6585 116.394 15.4905 116.139 15.4905H113.579V12.5102C113.579 12.3422 113.492 12.2581 113.406 12.1759C113.321 12.0928 113.151 12.0928 113.065 12.0928L110.421 12.4288C110.166 12.4288 109.993 12.6764 109.993 12.8418V15.4931H108.545C108.29 15.4931 108.116 15.6594 108.116 15.9088V17.8128C108.116 18.0604 108.29 18.2285 108.545 18.2285H109.993V24.8541C109.993 27.0915 111.189 28.2501 113.663 28.2501C114.346 28.2501 115.539 28.0865 116.308 27.8344C116.479 27.7548 116.65 27.5868 116.563 27.3392L116.308 25.6005L116.306 25.6032ZM48.8163 25.6032C48.8163 25.52 48.7316 25.3555 48.646 25.2715C48.5613 25.1831 48.391 25.1831 48.3054 25.1831C47.8773 25.2627 47.3673 25.3511 47.0257 25.3511C46.3427 25.3511 46.0876 25.1035 46.0876 24.4402V18.2232H48.6469C48.9019 18.2232 49.075 18.0551 49.075 17.8075V15.9061C49.075 15.6585 48.9019 15.4905 48.6469 15.4905H46.0849V12.5102C46.0849 12.3422 45.9993 12.2581 45.9137 12.1759C45.8281 12.0928 45.6587 12.0928 45.5721 12.0928L42.9291 12.4288C42.6741 12.4288 42.5038 12.6764 42.5038 12.8418V15.4931H41.0484C40.7933 15.4931 40.6203 15.6594 40.6203 15.9088V17.8128C40.6203 18.0604 40.7915 18.2285 41.0484 18.2285H42.4983V24.8541C42.4983 27.0915 43.6914 28.2501 46.166 28.2501C46.849 28.2501 48.0422 28.0865 48.8072 27.8344C48.9802 27.7548 49.1487 27.5868 49.0622 27.3392L48.8072 25.6005L48.8163 25.6032ZM84.227 25.4378C84.227 25.3547 84.1414 25.1884 84.0567 25.1062C83.972 25.023 83.8017 25.023 83.7161 25.023C82.9483 25.1884 82.1805 25.2706 81.4118 25.2706C79.7059 25.2706 79.2788 24.8576 79.2788 23.4489V20.0529C79.2788 18.6432 79.7906 18.2294 81.4118 18.2294C81.8399 18.2294 82.778 18.3125 83.7161 18.477C83.8008 18.477 83.9711 18.477 84.0567 18.3947C84.1405 18.3125 84.2261 18.2294 84.2261 18.0631L84.5695 16.075C84.5695 15.8274 84.4829 15.6612 84.227 15.578C83.2042 15.2464 82.0093 15.1624 81.3271 15.1624C77.3161 15.1624 75.694 16.5721 75.694 20.0529V23.3657C75.694 26.8457 77.3152 28.2545 81.3244 28.2545C82.2625 28.2545 83.3718 28.0891 84.2252 27.8388C84.4802 27.7575 84.5667 27.5912 84.5667 27.3436L84.2243 25.4378H84.227ZM25.6919 25.1062H28.8504C30.2166 25.1062 30.7266 24.7745 30.7266 23.6974V22.4504C30.7266 21.3715 30.3022 20.9558 29.1054 20.9558H27.9943C27.7393 20.9558 27.5662 20.7878 27.5662 20.5402V18.4805C27.5662 18.2311 27.7393 18.0649 27.9943 18.0649H28.5918C29.7011 18.0649 30.1273 17.651 30.1273 16.657V15.1642C30.1273 14.584 29.9616 14.0039 28.5972 14.0039H25.6837V25.1062H25.6919ZM73.6439 15.4949H71.0026C70.7476 15.4949 70.5746 15.6612 70.5746 15.9106V24.029C69.6365 24.526 68.2703 25.023 67.5053 25.023C66.9069 25.023 66.6492 24.7754 66.6492 24.1944V15.9159C66.6492 15.6682 66.4761 15.5002 66.2211 15.5002H63.5717C63.3167 15.5002 63.1454 15.6682 63.1454 15.9159V24.5322C63.1454 27.0173 64.1673 28.3438 66.2147 28.3438C67.5809 28.3438 69.5427 27.8459 71.1638 27.1004L71.3342 27.7637C71.4225 27.9299 71.5937 28.0962 71.7622 28.0962H73.7267C73.9818 28.0962 74.153 27.9282 74.153 27.6805V15.9097C74.0674 15.7416 73.898 15.494 73.6411 15.494L73.6439 15.4949ZM8.70604 9.53077C3.92541 9.53077 0 10.7715 0 12.3457C0 12.7613 1.0237 18.6424 1.45086 20.9629C1.62117 22.0392 4.43818 23.5311 8.70331 23.5311C12.9694 23.5311 15.6998 22.0454 15.9558 20.9665C16.3747 18.6494 17.4039 12.7684 17.4039 12.3528C17.3128 10.7786 13.4785 9.53696 8.69693 9.53696L8.70604 9.53077ZM8.70604 21.6262C7.1714 21.6262 5.97647 20.4659 5.97647 18.9749C5.97647 17.4803 7.16957 16.3218 8.70513 16.3218C10.2407 16.3218 11.4356 17.4803 11.4356 18.9749C11.4356 20.381 10.2407 21.6191 8.70513 21.6191L8.70604 21.6262ZM96.5934 27.3427L93.0943 21.7093L96.5096 16.1644C96.5943 15.9963 96.5943 15.8354 96.5096 15.7487C96.4231 15.5869 96.2528 15.5011 96.0816 15.5011H93.1808C93.0096 15.5011 92.8383 15.5869 92.7527 15.7487L89.5104 21.222V11.1049C89.5104 10.8555 89.3373 10.6893 89.0823 10.6893H86.4365C86.1815 10.6893 86.0085 10.8555 86.0085 11.1049V27.5894C86.0085 27.8371 86.1815 28.0051 86.4365 28.0051H89.0814C89.3364 28.0051 89.5095 27.8371 89.5095 27.5894V22.2037L92.9194 27.8371C93.005 28.0051 93.1744 28.0873 93.2609 28.0873H96.1608C96.4158 28.0873 96.5889 27.9211 96.5889 27.6717C96.6727 27.5072 96.6727 27.4241 96.5889 27.3409L96.5934 27.3427ZM100.604 20.3032V19.8875C100.604 18.6494 101.2 18.1542 102.48 18.1542C103.931 18.1542 104.187 18.8175 104.187 19.8964V20.312H100.604V20.3032ZM8.70695 17.5696C9.45925 17.5696 10.0731 18.1692 10.0731 18.8962C10.0731 19.6302 9.45925 20.2227 8.70695 20.2227C7.95466 20.2227 7.3408 19.6302 7.3408 18.8962C7.3408 18.1692 7.95284 17.5696 8.70695 17.5696ZM57.4276 15.2526C56.148 15.2526 54.7828 15.5869 53.9303 15.9159V11.1934C53.9303 10.9457 53.7591 10.7777 53.5022 10.7777H50.8573C50.6023 10.7777 50.4293 10.9457 50.4293 11.1934V27.5983C50.4293 27.8459 50.6023 28.0139 50.7708 28.0139C52.392 28.2616 54.3547 28.4296 55.464 28.4296C60.4131 28.4296 61.4368 26.3584 61.4368 23.2914V19.7275C61.4368 16.7472 60.0707 15.2526 57.4267 15.2526H57.4276ZM36.2668 13.758C36.0118 13.758 35.8388 13.5918 35.8388 13.3424V11.1049C35.8388 10.8555 36.0118 10.6893 36.2668 10.6893H38.9126C39.1694 10.6893 39.3407 10.9387 39.3407 11.1049V13.3406C39.3407 13.5882 39.1694 13.7563 38.9126 13.7563H36.2668V13.758ZM8.70513 13.1743C5.63219 13.1743 3.15855 12.6791 3.15855 12.0158C3.15855 11.3526 5.63219 10.8555 8.70513 10.8555C11.7762 10.8555 14.2517 11.3526 14.2517 12.0141C14.2517 12.6773 11.7762 13.1752 8.70513 13.1752V13.1743ZM42.92 6.63006C42.4938 6.63006 41.8107 6.4638 41.4691 6.21441C41.3872 6.21441 41.3872 6.13305 41.3872 6.04992L41.5575 5.38665L41.6395 5.3044H41.8098C42.2378 5.39284 42.6622 5.47243 43.0885 5.47243C43.6076 5.47243 43.6076 5.31325 43.6076 5.05678C43.6076 4.8976 43.6076 4.72957 42.838 4.56154C41.6449 4.31392 41.4719 3.9867 41.4719 3.07581C41.4719 2.24805 41.7287 1.66968 43.2661 1.66968C43.6914 1.66968 44.2889 1.74927 44.6322 1.83417C44.6322 1.83417 44.7142 1.9173 44.7142 1.99954L44.6295 2.74241L44.5448 2.82554H44.3736C44.2224 2.82554 44.0402 2.8105 43.8544 2.79282L43.6932 2.7769C43.5074 2.75921 43.3253 2.74152 43.1759 2.74152C42.6641 2.74152 42.6641 2.82377 42.6641 3.07227C42.6641 3.40833 42.6641 3.40833 43.2615 3.57282C44.5402 3.90534 44.7097 4.15385 44.7097 5.14699C44.7097 6.05257 44.3727 6.63095 42.9519 6.63979H42.9191L42.92 6.63006ZM39.1631 6.63006C38.653 6.63006 38.0547 6.4638 37.4572 6.21441C37.3716 6.21441 37.3716 6.13305 37.3716 6.04992L37.5428 5.38665L37.6339 5.3044H37.8069C38.2323 5.39284 38.6594 5.47243 39.0857 5.47243C39.5957 5.47243 39.5957 5.31325 39.5957 5.05678C39.5957 4.8976 39.5957 4.72957 38.8288 4.56154C37.6357 4.31392 37.4627 3.9867 37.4627 3.07581C37.4627 2.24805 37.7204 1.66968 39.2569 1.66968C39.6831 1.66968 40.2806 1.74927 40.623 1.83417C40.7068 1.83417 40.7924 1.9173 40.7924 1.99954L40.7086 2.74594L40.6249 2.82819H40.5338C40.3853 2.82819 40.2032 2.8105 40.0174 2.79282L39.8571 2.77778C39.6713 2.76009 39.4891 2.74594 39.3379 2.74594C38.8188 2.74594 38.8188 2.82554 38.8188 3.07316C38.8188 3.40656 38.8188 3.40656 39.4181 3.57194C40.6977 3.90534 40.8689 4.15385 40.9536 5.1461C40.9536 6.05257 40.6167 6.63183 39.1959 6.64068H39.1631V6.63006ZM54.6097 1.74131C54.0969 1.74131 53.4139 1.90757 52.7317 2.15696L52.6461 1.90757C52.6461 1.82444 52.5614 1.82444 52.4758 1.82444H51.708C51.6224 1.82444 51.5368 1.90757 51.5368 1.98981V6.38244C51.5368 6.4638 51.6224 6.54693 51.708 6.54693H52.7317C52.8173 6.54693 52.902 6.4638 52.902 6.38156V3.3137C53.2436 3.14833 53.7554 2.98295 54.0969 2.98295C54.352 2.98295 54.4385 3.0652 54.4385 3.3137V6.38244C54.4385 6.4638 54.5232 6.54693 54.6088 6.54693H55.6289C55.7108 6.54693 55.8019 6.4638 55.8019 6.38156V3.14568C55.7108 2.15165 55.3738 1.73689 54.6088 1.73689L54.6097 1.74131ZM46.4173 1.82444H45.3927C45.308 1.82444 45.2233 1.90757 45.2233 1.98981V6.38244C45.2233 6.4638 45.308 6.54693 45.3936 6.54693H46.4228C46.5121 6.54693 46.5959 6.4638 46.5959 6.38156V1.98716C46.5959 1.90492 46.5121 1.82179 46.4228 1.82179L46.4173 1.82444ZM32.4234 0.0026531H31.3997C31.315 0.0026531 31.2294 0.0848988 31.2294 0.167144V6.38244C31.2294 6.4638 31.3113 6.54693 31.3933 6.54693H32.4225C32.5044 6.54693 32.59 6.4638 32.59 6.38156V0.165376C32.59 0.0831301 32.5044 0 32.4197 0L32.4234 0.0026531ZM25.9387 0.250274C25.9387 0.167144 25.854 0.167144 25.7684 0.167144H24.2328C24.1472 0.167144 24.0616 0.250274 24.0616 0.250274L22.0943 6.29931V6.4638C22.0943 6.54693 22.1763 6.54693 22.261 6.54693H23.3722C23.4559 6.54693 23.5406 6.4638 23.5406 6.4638L24.9068 1.98893C24.9068 1.98893 24.9068 1.90757 25.0771 1.90757C25.1609 1.90757 25.2465 1.98981 25.2465 1.98981L25.8449 4.06187H24.9906C24.9032 4.06187 24.8175 4.14412 24.8175 4.14412L24.5625 4.96658V5.1293C24.5625 5.1293 24.6472 5.21243 24.7328 5.21243H26.181L26.5234 6.37271C26.5234 6.45407 26.609 6.45407 26.6946 6.45407H27.8058C27.8914 6.45407 27.8914 6.45407 27.9788 6.37006V6.20203L25.9387 0.24939V0.250274ZM34.7276 5.55291C35.1557 5.55291 35.4107 5.46978 35.581 5.38753V4.72426H34.7276C34.3861 4.72426 34.3014 4.88964 34.3014 5.13814C34.3014 5.46713 34.3852 5.55114 34.7203 5.55379H34.7276V5.55291ZM30.6319 5.55291C30.6319 5.46978 30.6319 5.46978 30.5472 5.46978H30.376C30.2057 5.55291 30.0344 5.55291 29.8641 5.55291C29.6091 5.55291 29.5226 5.46978 29.5226 5.22127V2.81846H30.4607C30.5472 2.81846 30.6319 2.73622 30.6319 2.65309V1.98981C30.6319 1.90757 30.5472 1.82444 30.4616 1.82444H29.5235V0.664156C29.5235 0.58191 29.5235 0.58191 29.4379 0.58191C29.4379 0.58191 29.3523 0.502318 29.2667 0.58191L28.2429 0.749939C28.1573 0.749939 28.0726 0.838375 28.0726 0.917968V1.90845H27.5608C27.4788 1.90845 27.3968 1.99512 27.3968 2.07648V2.82377C27.3968 2.90778 27.4843 2.9918 27.5699 2.9918H28.0827V5.47685C28.0827 6.30462 28.5089 6.71938 29.4488 6.71938C29.7038 6.71938 30.1301 6.63537 30.3869 6.55135C30.7275 6.38598 30.7275 6.38598 30.7275 6.30373L30.6419 5.55733L30.6319 5.55291ZM48.8063 5.55291C49.2344 5.55291 49.4894 5.46978 49.6597 5.38753V4.72426H48.8063C48.4657 4.72426 48.3801 4.88964 48.3801 5.13814C48.3801 5.46713 48.4638 5.55114 48.799 5.55379H48.8063V5.55291ZM34.9826 1.74131C34.4726 1.74131 33.8742 1.82444 33.448 1.90757C33.3624 1.90757 33.2777 1.98981 33.3624 2.07294L33.4535 2.73622C33.4535 2.81846 33.4535 2.81846 33.5427 2.81846H33.6274C34.0555 2.73622 34.4808 2.73622 34.8205 2.73622C35.5036 2.73622 35.6748 2.90159 35.6748 3.31547V3.73112H34.6457C33.621 3.73112 33.1948 4.14412 33.1948 5.0559C33.1948 5.96679 33.7066 6.4638 34.4744 6.4638C34.9845 6.4638 35.4125 6.29843 35.8388 6.13305V6.29843C35.8388 6.38156 35.9244 6.38156 36.0091 6.38156H36.7778C36.8597 6.38156 36.9508 6.29312 36.9508 6.21353V3.3933C36.9508 2.15077 36.4408 1.736 34.9908 1.736L34.9826 1.74131ZM48.9775 1.74131C48.4657 1.74131 47.8682 1.82444 47.441 1.90757C47.35 1.90757 47.268 1.98981 47.35 2.07294L47.4319 2.73622C47.4319 2.81846 47.4319 2.81846 47.5166 2.81846H47.6023C48.0303 2.73622 48.4556 2.73622 48.7954 2.73622C49.4784 2.73622 49.6515 2.90159 49.6515 3.31547V3.73112H48.6351C47.6123 3.73112 47.1851 4.14412 47.1851 5.0559C47.1851 5.96679 47.697 6.4638 48.4657 6.4638C48.9775 6.4638 49.4038 6.29843 49.8318 6.13305L49.9156 6.29843C49.9156 6.38156 50.0012 6.38156 50.0868 6.38156H50.8546C50.9402 6.38156 51.0249 6.29312 51.0249 6.21353V3.3933C50.9402 2.15077 50.4275 1.736 48.9775 1.736V1.74131ZM46.4183 0.00176875H45.3927C45.308 0.00176875 45.2233 0.0848988 45.2233 0.167144V0.995792C45.2233 1.07538 45.308 1.15498 45.3936 1.15498H46.4228C46.5121 1.15498 46.5959 1.07008 46.5959 0.986948V0.165376C46.5959 0.0831301 46.5121 0 46.4228 0L46.4183 0.00176875Z" fill="#D6DAE5"/>
</svg>

<svg width="117" height="29" fill="none" xmlns="http://www.w3.org/2000/svg"><path fill-rule="evenodd" clip-rule="evenodd" d="M14.932 23.2c-.17 0-.255.084-.255.084s-2.134 1.662-5.975 1.662c-3.838 0-5.97-1.663-5.97-1.663s-.17-.083-.255-.083c-.17 0-.342.084-.342.332v.082c.341 1.74.597 2.983.597 3.149C2.987 28.006 5.548 29 8.62 29s5.632-.994 5.888-2.237c0-.166.255-1.408.592-3.149v-.082c.082-.166 0-.332-.173-.332h.005zm17.321-4.059c1.11-.58 1.536-1.409 1.536-2.653v-1.74c0-2.485-1.536-3.726-4.778-3.726h-6.485c-.255 0-.426.166-.426.415v16.237c0 .25.17.416.426.416h6.997c3.072 0 4.863-1.492 4.863-4.06v-1.74c0-1.49-.768-2.65-2.133-3.149v.001zm6.656-3.646h-2.641c-.255 0-.428.166-.428.416v11.763c0 .248.173.416.428.416h2.65c.255 0 .428-.168.428-.416V15.91c0-.248-.173-.416-.428-.416h-.009zm63.572-.248c-3.58 0-5.374 1.74-5.374 4.97v3.232c0 3.314 1.794 4.889 5.547 4.889 1.539 0 3.16-.248 4.526-.747.171-.082.341-.247.255-.497l-.426-1.822c0-.084-.085-.249-.17-.249-.086-.083-.255-.083-.342-.083a13.192 13.192 0 01-3.497.498c-1.963 0-2.304-.58-2.304-1.906v-.416h6.57c.255 0 .428-.164.428-.413v-2.32c-.086-3.48-1.707-5.137-5.205-5.137l-.008.001zM55.64 25.355c-.683 0-1.193 0-1.703-.084v-6.385c.768-.336 1.792-.663 2.559-.663 1.024 0 1.452.416 1.452 1.327v3.723c0 1.409-.342 2.072-2.305 2.072l-.003.01zm60.666.248c0-.083-.082-.248-.167-.332-.085-.088-.255-.088-.341-.088-.512.08-.938.168-1.28.168-.683 0-.938-.247-.938-.91v-6.218h2.559c.255 0 .425-.168.425-.415v-1.902c0-.248-.17-.415-.425-.415h-2.56v-2.98c0-.169-.087-.253-.173-.335-.085-.083-.255-.083-.341-.083l-2.644.336c-.255 0-.428.247-.428.413v2.651h-1.448c-.255 0-.429.166-.429.416v1.904c0 .247.174.416.429.416h1.448v6.625c0 2.238 1.196 3.396 3.67 3.396.683 0 1.876-.163 2.645-.416.171-.08.342-.247.255-.495l-.255-1.738-.002.002zm-67.49 0c0-.083-.084-.248-.17-.332-.085-.088-.255-.088-.34-.088-.429.08-.939.168-1.28.168-.683 0-.938-.247-.938-.91v-6.218h2.559c.255 0 .428-.168.428-.415v-1.902c0-.248-.173-.415-.428-.415h-2.562v-2.98c0-.169-.086-.253-.171-.335-.086-.083-.255-.083-.342-.083l-2.643.336c-.255 0-.425.247-.425.413v2.651h-1.456c-.255 0-.428.166-.428.416v1.904c0 .247.172.416.428.416h1.45v6.625c0 2.238 1.193 3.396 3.668 3.396.683 0 1.876-.163 2.641-.416.173-.08.342-.247.255-.495l-.255-1.738.01.002zm35.411-.165c0-.083-.086-.25-.17-.332-.085-.083-.255-.083-.34-.083-.769.165-1.537.248-2.305.248-1.706 0-2.133-.413-2.133-1.822v-3.396c0-1.41.512-1.824 2.133-1.824.428 0 1.366.084 2.304.248.085 0 .255 0 .34-.082.085-.082.17-.166.17-.332l.344-1.988c0-.248-.087-.414-.343-.497-1.023-.332-2.218-.416-2.9-.416-4.01 0-5.633 1.41-5.633 4.89v3.314c0 3.48 1.621 4.889 5.63 4.889.939 0 2.048-.166 2.901-.416.255-.081.342-.248.342-.495l-.343-1.906h.003zm-58.535-.332h3.158c1.367 0 1.877-.332 1.877-1.409V22.45c0-1.078-.425-1.494-1.622-1.494h-1.11c-.256 0-.429-.168-.429-.416v-2.06c0-.249.173-.415.428-.415h.598c1.11 0 1.535-.414 1.535-1.408v-1.493c0-.58-.165-1.16-1.53-1.16h-2.913v11.102h.008zm47.952-9.611h-2.641c-.255 0-.428.166-.428.416v8.118c-.939.497-2.305.994-3.07.994-.598 0-.856-.248-.856-.829v-8.278c0-.248-.173-.416-.428-.416h-2.65c-.254 0-.426.168-.426.416v8.616c0 2.485 1.022 3.812 3.07 3.812 1.366 0 3.328-.498 4.949-1.244l.17.664c.088.166.26.332.428.332h1.965c.255 0 .426-.168.426-.416V15.91c-.086-.168-.255-.416-.512-.416h.003zM8.706 9.53C3.926 9.53 0 10.77 0 12.346c0 .415 1.024 6.296 1.45 8.617.171 1.076 2.988 2.568 7.253 2.568 4.266 0 6.997-1.486 7.253-2.564.419-2.318 1.448-8.199 1.448-8.614-.091-1.574-3.925-2.816-8.707-2.816l.009-.006zm0 12.095c-1.535 0-2.73-1.16-2.73-2.651 0-1.495 1.194-2.653 2.73-2.653 1.535 0 2.73 1.158 2.73 2.653 0 1.406-1.195 2.644-2.73 2.644v.007zm87.887 5.717l-3.499-5.634 3.416-5.545c.084-.168.084-.329 0-.415a.48.48 0 00-.428-.248H93.18a.48.48 0 00-.428.248l-3.243 5.473V11.105c0-.25-.173-.416-.428-.416h-2.645c-.255 0-.428.166-.428.416v16.484c0 .248.172.416.427.416h2.645c.255 0 .428-.168.428-.416v-5.385l3.41 5.633c.086.168.255.25.342.25h2.9c.255 0 .428-.166.428-.415.084-.165.084-.248 0-.331l.004.002zm4.011-7.04v-.416c0-1.238.596-1.733 1.876-1.733 1.451 0 1.707.663 1.707 1.742v.416h-3.583v-.009zM8.707 17.57c.752 0 1.366.6 1.366 1.326 0 .734-.614 1.327-1.366 1.327-.752 0-1.366-.593-1.366-1.327 0-.727.612-1.326 1.366-1.326zm48.72-2.317c-1.279 0-2.644.334-3.497.663v-4.723c0-.247-.17-.415-.428-.415h-2.645c-.255 0-.428.168-.428.415v16.405c0 .248.173.416.342.416 1.621.248 3.584.416 4.693.416 4.95 0 5.973-2.072 5.973-5.139v-3.564c0-2.98-1.366-4.474-4.01-4.474zm-21.16-1.495c-.255 0-.428-.166-.428-.416v-2.237c0-.25.173-.416.428-.416h2.646c.256 0 .428.25.428.416v2.236c0 .247-.172.415-.428.415h-2.646v.002zm-27.562-.584c-3.073 0-5.546-.495-5.546-1.158 0-.663 2.473-1.16 5.546-1.16 3.071 0 5.547.497 5.547 1.158 0 .663-2.476 1.161-5.547 1.161zM42.92 6.63c-.426 0-1.11-.166-1.45-.416-.083 0-.083-.081-.083-.164l.17-.663.082-.083h.17c.429.089.853.168 1.28.168.519 0 .519-.159.519-.415 0-.16 0-.327-.77-.495-1.193-.248-1.366-.575-1.366-1.486 0-.828.257-1.406 1.794-1.406.425 0 1.023.08 1.366.164 0 0 .082.083.082.166l-.084.742-.085.084h-.171a5.82 5.82 0 01-.52-.033l-.16-.016a5.82 5.82 0 00-.518-.035c-.512 0-.512.082-.512.33 0 .336 0 .336.597.5 1.28.333 1.449.582 1.449 1.575 0 .906-.337 1.484-1.758 1.493h-.033l.001-.01zm-3.757 0c-.51 0-1.108-.166-1.706-.416-.085 0-.085-.081-.085-.164l.17-.663.092-.083h.173c.425.089.852.168 1.279.168.51 0 .51-.159.51-.415 0-.16 0-.327-.767-.495-1.193-.248-1.366-.575-1.366-1.486 0-.828.257-1.406 1.794-1.406.426 0 1.024.08 1.366.164.084 0 .17.083.17.166l-.084.746-.084.082h-.091a5.8 5.8 0 01-.517-.035l-.16-.015a5.792 5.792 0 00-.52-.032c-.518 0-.518.08-.518.327 0 .334 0 .334.6.499 1.279.333 1.45.582 1.535 1.574 0 .907-.337 1.486-1.758 1.495h-.033v-.01zM54.61 1.741c-.513 0-1.196.167-1.878.416l-.086-.25c0-.083-.085-.083-.17-.083h-.768c-.086 0-.171.084-.171.166v4.392c0 .082.085.165.171.165h1.024c.085 0 .17-.083.17-.165V3.314c.342-.166.853-.331 1.195-.331.255 0 .341.082.341.33v3.07c0 .08.085.164.17.164h1.02c.083 0 .174-.083.174-.165V3.146c-.091-.994-.428-1.41-1.193-1.41v.005zm-8.193.083h-1.024c-.085 0-.17.084-.17.166v4.392c0 .082.085.165.17.165h1.03c.09 0 .173-.083.173-.165V1.987c0-.082-.084-.165-.173-.165l-.006.002zM32.423.003H31.4c-.085 0-.17.082-.17.164v6.215c0 .082.081.165.163.165h1.03c.081 0 .167-.083.167-.165V.165c0-.082-.086-.165-.17-.165l.003.003zM25.94.25c0-.083-.085-.083-.17-.083h-1.536c-.086 0-.171.083-.171.083L22.094 6.3v.164c0 .083.082.083.167.083h1.111c.084 0 .169-.083.169-.083l1.366-4.475s0-.081.17-.081c.084 0 .17.082.17.082l.598 2.072h-.854c-.088 0-.174.082-.174.082l-.255.823v.162s.085.083.17.083h1.449l.342 1.16c0 .082.086.082.172.082h1.11c.086 0 .086 0 .174-.084v-.168L25.939.249V.25zm8.789 5.303c.428 0 .683-.083.853-.165v-.664h-.853c-.342 0-.427.166-.427.414 0 .33.084.413.42.416h.007v-.001zm-4.096 0c0-.083 0-.083-.085-.083h-.171c-.17.083-.342.083-.512.083-.255 0-.341-.083-.341-.332V2.818h.938c.086 0 .17-.082.17-.165V1.99c0-.082-.084-.166-.17-.166h-.938V.664c0-.082 0-.082-.085-.082 0 0-.086-.08-.171 0L28.243.75c-.086 0-.17.088-.17.168v.99h-.512c-.082 0-.164.087-.164.168v.748c0 .084.087.168.173.168h.513v2.485c0 .828.426 1.242 1.366 1.242.255 0 .681-.084.938-.168.34-.165.34-.165.34-.247l-.085-.747-.01-.004zm18.174 0c.428 0 .683-.083.854-.165v-.664h-.854c-.34 0-.426.166-.426.414 0 .33.084.413.419.416h.007v-.001zM34.983 1.74a8.67 8.67 0 00-1.535.167c-.086 0-.17.082-.086.165l.091.663c0 .082 0 .082.09.082h.084c.428-.082.854-.082 1.194-.082.683 0 .854.166.854.58v.415h-1.03c-1.024 0-1.45.413-1.45 1.325 0 .91.512 1.408 1.28 1.408.51 0 .938-.166 1.364-.331v.165c0 .084.085.084.17.084h.769c.082 0 .173-.089.173-.168v-2.82c0-1.243-.51-1.658-1.96-1.658l-.008.005zm13.995 0c-.512 0-1.11.083-1.537.167-.091 0-.173.082-.091.165l.082.663c0 .082 0 .082.085.082h.085c.428-.082.854-.082 1.193-.082.683 0 .856.166.856.58v.415h-1.016c-1.023 0-1.45.413-1.45 1.325 0 .91.512 1.408 1.28 1.408.512 0 .939-.166 1.367-.331l.084.165c0 .084.085.084.17.084h.769c.085 0 .17-.089.17-.168v-2.82c-.085-1.243-.597-1.658-2.047-1.658v.005zM46.418 0h-1.025c-.085 0-.17.084-.17.166v.829c0 .08.085.159.17.159h1.03c.09 0 .173-.085.173-.168V.165c0-.082-.084-.165-.173-.165l-.005.002z" fill="#D6DAE5"/></svg>
